P2
160 120
620
145 108 114 103 122 77 79 71 79 69 69 69 47 71 53 66 53 74 63 63 47 63 45 39 34 37 42 31 63 39 42 15 31 31 47 18 31 34 34 47 37 34 42 26 39 13 15 13 18 15 39 29 26 31 29 31 39 37 34 26 34 34 18 23 23 7 15 23 31 37 10 42 5 0 13 26 13 23 23 10 15 29 18 21 31 45 26 55 47 21 42 50 61 74 66 85 66 58 63 92 87 90 87 92 92 95 85 116 103 103 130 111 124 132 137 127 132 135 153 143 108 127 100 116 111 135 108 116 106 108 106 114 122 122 124 95 122 90 119 92 108 100 114 122 108 130 135 127 116 124 124 140 127 153 145 161 150 140 156 150 
163 122 119 130 108 74 77 85 71 77 85 69 74 85 66 53 53 61 61 47 61 58 45 39 45 50 47 47 50 53 31 39 34 37 37 21 37 31 29 31 39 34 34 26 21 37 29 37 29 26 39 50 31 29 29 45 47 31 26 37 61 34 5 26 10 15 26 18 18 42 23 23 23 26 10 15 15 21 39 42 18 21 29 31 37 53 53 50 42 50 58 63 71 95 98 77 87 55 85 92 79 85 85 92 98 100 95 103 103 108 114 116 116 137 130 132 140 124 135 124 100 114 108 114 108 135 132 130 116 130 119 122 137 119 122 111 124 87 122 114 116 114 130 127 116 140 116 135 124 127 127 119 124 163 166 135 153 150 148 132 
135 106 103 106 90 77 100 87 53 77 85 71 77 61 63 42 55 42 42 61 50 66 31 37 42 42 55 55 39 39 42 29 45 42 31 39 31 42 29 29 45 26 31 21 39 45 29 23 21 26 21 29 26 53 45 45 39 37 34 53 47 37 31 31 23 23 26 15 18 37 18 42 21 31 13 21 34 26 10 15 23 21 7 23 34 39 26 45 45 53 69 45 50 61 82 69 74 66 79 100 100 82 100 79 82 85 61 103 108 111 100 111 106 122 148 130 150 122 127 132 111 119 124 114 106 135 119 122 137 122 114 108 127 103 116 114 103 79 98 114 114 124 122 119 137 127 132 124 119 122 127 114 124 148 156 145 163 143 145 122 
130 122 127 87 111 77 90 90 87 77 74 77 63 71 63 53 55 42 69 45 55 53 50 34 47 34 53 58 42 39 55 42 50 31 31 29 29 39 45 31 31 31 39 18 37 23 37 37 34 29 34 23 31 37 47 29 55 45 26 34 39 26 29 29 5 26 10 26 18 42 31 18 23 21 39 29 29 13 21 29 10 7 15 21 42 26 47 23 61 66 74 50 53 61 66 66 85 58 85 82 85 100 92 90 71 90 95 95 106 98 100 95 87 100 135 116 132 114 127 135 119 103 106 92 130 124 124 124 132 114 124 116 114 119 103 114 116 114 103 103 122 114 137 130 119 119 116 124 124 145 119 119 137 140 140 140 135 150 130 132 
130 116 119 119 114 95 82 85 100 79 66 74 77 61 61 69 58 63 71 69 42 50 45 58 53 63 58 45 26 31 50 26 45 45 47 18 37 31 29 31 37 29 37 47 26 37 39 26 39 42 37 37 55 31 26 29 42 13 31 42 34 39 13 13 7 10 23 23 26 21 18 26 10 18 2 13 29 31 21 21 26 34 15 39 34 53 50 58 79 53 63 71 53 66 66 71 82 61 79 90 66 100 95 92 92 108 87 98 92 103 106 106 114 100 122 140 130 124 145 127 95 87 103 114 119 127 140 116 127 124 116 130 135 124 108 111 98 103 111 116 116 100 111 119 132 127 130 119 127 116 132 119 130 140 140 145 137 130 135 132 
158 127 135 95 90 100 85 77 85 85 69 61 61 87 55 53 53 66 58 45 50 71 29 39 58 50 45 47 50 58 34 53 53 42 53 47 31 53 37 45 42 39 39 31 29 31 23 53 34 26 29 39 37 31 29 15 31 21 15 45 45 21 34 26 29 18 21 29 29 29 34 29 37 23 21 15 15 18 31 29 18 37 39 31 42 42 63 47 66 45 71 63 61 71 74 77 79 82 69 90 98 92 103 98 85 103 95 103 100 98 100 92 95 116 108 140 132 137 132 92 87 100 111 116 119 124 122 130 135 106 132 122 124 116 103 122 98 116 119 122 132 119 116 116 124 119 119 116 119 116 148 111 130 140 143 148 156 143 132 140 
124 119 127 98 106 85 92 90 92 92 111 77 69 79 58 61 58 69 69 45 63 61 55 29 58 61 47 58 55 58 69 26 58 47 71 55 47 47 47 39 47 45 58 37 42 53 29 45 47 45 23 37 47 34 26 37 42 42 50 45 37 39 34 26 42 50 42 15 29 26 18 31 31 13 39 29 31 42 39 31 42 34 39 45 58 63 66 58 79 85 85 82 69 63 74 82 77 69 100 100 90 106 100 95 100 111 103 114 106 103 111 111 100 90 98 122 143 145 140 119 103 108 98 130 108 124 137 148 124 103 130 122 130 127 116 127 119 108 116 130 143 145 122 111 130 135 130 135 124 119 130 106 122 169 156 150 150 135 153 148 
132 119 108 98 116 108 66 106 106 85 87 82 85 98 58 61 61 63 55 61 66 66 55 66 55 47 61 79 39 55 58 50 66 55 53 47 37 50 21 37 45 29 45 37 50 55 26 58 37 37 37 39 31 42 47 42 29 39 37 37 39 47 34 45 21 39 29 37 42 37 23 29 29 21 37 42 29 34 42 39 23 39 34 39 39 74 58 71 79 71 79 90 66 77 74 82 69 71 87 103 92 85 82 95 108 108 111 106 106 103 92 119 103 95 87 116 140 119 127 111 98 100 116 116 116 132 119 127 137 145 124 130 130 140 124 103 114 103 111 124 132 135 116 132 124 122 135 122 114 98 124 122 124 150 156 156 143 140 156 143 
137 106 130 98 108 119 108 98 98 98 90 79 79 69 92 74 85 63 79 69 69 82 58 66 82 58 63 71 55 53 69 47 50 63 50 55 39 63 55 50 53 45 47 61 53 39 37 42 47 45 53 39 53 42 37 50 39 34 29 45 61 47 29 29 34 37 29 26 37 37 23 23 18 47 31 23 34 39 53 31 34 42 53 47 71 77 82 63 71 77 77 82 77 71 77 90 82 66 87 100 87 98 87 103 90 103 106 108 108 103 111 98 108 100 98 124 137 119 143 135 116 87 116 122 111 137 108 130 135 130 130 130 130 150 100 103 114 116 114 114 135 114 135 122 114 145 127 119 127 106 148 124 140 143 145 156 158 158 143 158 
143 127 111 106 100 106 90 90 74 100 85 79 92 74 66 66 85 69 50 77 71 74 66 74 71 50 71 69 55 61 69 55 66 61 66 58 47 42 39 50 37 45 45 42 34 50 45 42 45 34 26 34 55 34 39 31 50 42 26 26 34 37 31 37 29 34 31 42 18 39 26 45 21 29 23 37 42 47 39 58 45 50 53 61 85 71 58 66 85 79 63 79 71 87 69 79 71 77 82 87 71 82 95 82 87 103 90 106 100 103 92 114 108 92 124 130 140 135 132 132 98 95 116 98 122 127 111 143 127 124 140 114 132 140 143 132 114 87 119 119 111 132 119 124 116 114 124 119 116 130 148 114 124 132 153 140 163 145 169 153 
132 132 114 98 111 114 108 98 87 106 103 85 90 66 77 71 77 66 69 77 50 85 50 61 79 55 77 87 58 61 53 42 55 53 47 61 47 39 47 45 45 31 45 45 26 50 47 39 42 37 42 47 47 42 42 23 53 39 47 37 42 26 15 34 42 39 21 29 39 26 21 18 21 31 34 31 21 53 53 53 45 61 45 39 66 61 79 58 71 79 79 82 66 74 77 87 79 71 85 92 71 87 82 87 71 85 100 98 92 106 106 106 106 116 111 119 122 116 137 143 100 90 100 95 116 111 122 137 124 127 122 114 116 111 124 127 103 108 106 119 119 135 116 108 124 111 127 127 100 103 127 116 150 114 148 127 140 150 158 130 
122 124 111 116 108 87 90 85 82 103 82 87 95 79 85 82 82 69 69 71 74 77 55 50 53 63 69 74 47 58 55 55 58 50 47 42 50 45 66 26 58 53 37 42 37 45 23 37 26 34 37 34 39 50 26 42 45 31 39 37 34 21 42 23 29 29 15 29 45 37 26 23 23 29 26 21 37 42 26 55 47 53 47 50 58 71 71 74 79 77 87 92 77 63 74 82 55 77 71 87 82 82 69 66 71 79 85 103 100 100 98 116 98 106 100 116 119 103 116 127 95 82 106 98 108 116 100 135 140 127 130 127 122 108 116 114 103 124 108 143 122 127 108 119 124 116 122 114 119 122 114 116 124 119 135 150 143 119 135 116 
143 108 114 132 127 116 95 77 79 85 79 92 90 87 82 77 66 82 74 79 79 79 69 71 71 55 66 95 58 63 71 53 45 47 42 42 45 50 50 45 53 53 47 53 29 42 34 39 47 53 34 45 47 58 45 34 58 34 45 37 26 42 34 39 37 26 34 37 13 34 13 31 34 23 21 23 39 29 42 47 50 63 45 69 63 71 74 74 90 74 82 90 71 87 79 79 85 74 71 85 82 69 77 77 87 77 87 103 100 116 106 103 95 108 100 106 111 130 108 111 100 108 98 98 108 111 114 119 135 145 130 132 132 114 116 108 108 103 124 119 114 127 108 119 116 114 127 108 114 122 106 100 114 140 135 140 137 127 163 119 
111 130 114 130 106 122 103 106 103 98 98 100 87 85 79 77 77 98 82 66 61 82 71 61 82 61 58 82 61 71 55 58 42 39 47 58 45 42 39 47 50 55 50 47 39 47 39 47 39 50 23 37 39 50 50 42 53 47 42 45 47 50 42 37 39 23 29 26 42 31 29 47 34 42 29 15 42 39 37 37 42 55 66 66 66 90 71 77 79 82 100 87 79 87 106 103 95 66 74 90 69 71 77 87 69 90 92 90 85 108 108 114 111 111 111 106 114 108 119 108 106 103 100 106 116 108 127 127 135 135 124 137 135 116 122 122 108 135 130 127 119 127 122 132 130 137 124 116 103 119 122 106 130 145 130 140 143 132 140 150 
156 127 127 130 116 106 106 114 100 92 92 66 95 85 85 82 63 74 79 79 71 106 63 61 69 63 61 74 53 71 50 53 45 39 53 47 37 47 39 29 37 47 34 50 45 42 39 23 26 42 37 42 55 42 61 42 45 47 39 34 37 47 34 34 45 45 15 29 26 39 37 37 31 37 18 23 47 34 34 31 42 47 45 55 69 74 79 66 61 82 95 85 79 74 85 82 87 82 79 79 69 74 63 66 71 79 69 69 87 103 106 106 116 114 108 98 106 100 124 124 111 111 98 98 111 116 108 119 114 137 130 114 114 116 132 116 108 119 108 122 127 140 127 106 127 111 103 119 114 106 116 119 108 135 119 135 132 124 135 135 
153 132 122 119 116 122 111 98 116 103 87 92 103 90 77 87 87 87 106 74 69 85 85 69 61 66 50 82 39 53 53 42 34 37 42 55 50 45 31 26 55 42 53 29 69 29 26 42 39 42 39 31 47 45 45 47 42 37 31 45 50 37 31 26 34 47 31 23 29 31 29 31 31 34 21 31 26 18 45 37 39 61 63 63 69 71 69 77 63 69 82 74 82 69 100 79 98 79 87 71 61 71 61 71 71 74 69 79 85 100 90 106 108 111 116 116 135 116 116 130 111 111 111 95 114 124 106 122 127 137 135 122 132 140 140 124 108 111 108 122 140 148 143 111 130 108 122 135 119 122 119 116 122 106 132 145 132 143 124 124 
130 150 122 116 111 119 106 124 114 106 90 106 106 87 90 71 74 87 90 98 71 90 90 79 77 69 71 85 69 50 53 63 58 55 53 37 50 47 47 45 63 47 50 58 39 34 39 50 42 58 37 50 50 42 47 31 45 31 39 45 50 39 29 50 45 37 26 39 29 34 37 42 45 37 37 37 26 5 34 53 47 50 58 71 87 74 79 69 90 82 77 63 61 69 85 74 92 71 90 87 71 85 61 74 74 71 71 79 85 95 95 85 100 111 114 132 116 119 135 132 124 114 135 108 111 108 124 130 137 137 143 124 127 135 132 124 119 116 119 122 122 140 140 116 135 127 122 122 114 106 106 98 103 114 127 124 132 132 127 130 
124 135 100 124 116 100 98 85 100 74 95 77 87 87 74 74 74 92 77 92 69 90 77 74 77 74 85 61 79 63 47 50 50 53 58 50 45 37 45 45 42 61 61 42 63 47 53 42 53 50 45 42 37 42 45 31 42 37 34 39 31 37 31 42 42 31 31 29 31 23 31 34 26 31 39 45 37 34 39 47 39 61 77 74 79 85 74 66 69 79 92 71 71 77 74 58 74 66 95 98 71 85 74 66 71 95 82 77 87 90 92 85 90 108 116 130 122 127 111 135 116 114 127 108 116 119 116 140 135 145 135 122 122 122 137 122 124 98 119 119 122 150 135 127 132 124 119 116 122 122 106 108 116 106 122 111 106 137 143 127 
116 98 103 108 108 100 71 95 100 82 87 79 61 63 82 87 74 82 77 79 92 82 85 82 66 58 77 63 58 53 58 58 61 55 63 50 42 47 61 47 39 34 34 50 50 29 45 58 37 34 47 42 53 42 50 45 53 37 31 23 42 47 34 39 45 42 21 47 26 37 34 47 37 34 39 39 31 21 34 47 45 45 74 66 71 55 63 61 63 85 85 85 79 69 69 58 77 63 87 87 74 79 85 71 69 82 85 87 90 82 85 87 108 95 116 122 111 127 114 116 116 122 114 119 114 116 116 122 114 135 122 106 132 122 130 114 92 82 122 124 122 130 135 111 119 114 111 114 116 111 103 90 111 106 127 114 114 124 135 116 
116 116 111 114 98 116 79 85 98 85 85 79 85 71 95 58 98 63 77 74 87 82 69 79 74 55 79 58 50 77 53 58 58 29 58 58 50 45 47 26 53 55 45 45 37 45 39 47 37 42 42 53 45 26 55 45 31 34 42 42 50 50 39 39 23 39 45 26 29 42 31 47 37 39 45 37 34 26 45 55 34 63 74 63 77 74 74 79 74 90 74 82 55 90 74 66 85 100 98 100 90 74 82 77 71 71 77 74 85 90 82 103 87 87 103 103 132 116 111 127 135 122 111 114 116 122 108 114 114 132 106 111 130 111 108 108 114 108 122 124 114 122 114 122 100 119 130 137 106 116 108 95 106 111 116 132 114 119 106 111 
116 111 114 106 100 100 108 103 79 74 71 85 82 77 87 82 71 85 98 92 82 87 82 82 82 69 85 71 53 63 66 79 53 58 50 69 53 47 47 47 55 55 50 45 61 50 37 55 53 50 50 45 53 50 55 47 58 58 58 45 53 58 47 71 39 45 29 31 18 45 53 55 47 45 71 47 39 34 61 55 53 74 74 74 74 66 63 69 63 82 90 82 63 82 79 66 66 79 85 108 100 95 82 85 77 95 90 85 90 79 100 100 92 92 103 98 116 116 127 122 132 140 111 98 135 111 119 108 106 111 132 98 122 106 114 119 92 95 111 119 106 124 108 122 122 114 116 103 114 127 106 98 106 122 114 103 103 119 124 108 
111 111 122 116 98 100 98 100 95 82 77 77 79 79 85 85 87 85 98 90 90 85 77 77 69 71 69 79 63 74 61 74 74 55 45 55 63 55 42 34 61 42 66 71 50 42 50 42 53 55 39 42 58 61 71 61 61 50 61 58 71 55 63 61 50 23 39 42 47 53 61 61 69 45 55 58 71 50 74 63 63 77 71 77 77 82 82 79 90 87 92 87 74 82 77 69 87 87 106 106 87 82 85 85 77 87 95 92 87 87 100 90 87 85 122 111 124 124 114 145 145 169 116 106 130 116 103 100 111 116 137 103 108 114 111 108 111 108 124 111 132 116 114 124 108 124 135 106 100 103 103 106 108 116 124 95 116 103 111 98 
114 130 127 124 106 92 116 100 116 100 95 95 108 106 69 69 85 77 98 95 82 82 85 69 74 74 82 85 58 71 85 77 90 58 63 55 69 58 69 58 47 63 61 66 66 55 45 63 58 66 58 47 63 69 50 66 69 90 79 69 92 63 69 66 53 45 55 63 55 61 74 63 58 77 66 71 85 74 69 74 87 79 87 69 79 66 85 77 74 79 95 100 85 92 71 85 90 100 106 106 100 95 95 82 95 95 87 106 87 90 100 90 98 116 92 111 108 130 122 127 127 143 122 127 116 119 103 111 92 116 116 106 106 130 119 122 108 108 130 108 111 122 137 122 135 127 114 124 119 111 108 98 116 100 108 114 119 108 106 95 
127 140 140 119 116 103 100 111 100 103 82 103 106 90 69 82 79 79 71 92 77 74 90 79 74 82 79 77 58 82 74 85 82 77 61 61 69 50 58 58 50 66 71 58 47 66 61 71 63 69 71 58 77 74 74 71 79 79 85 82 92 82 79 85 74 63 71 77 74 69 77 77 85 92 85 87 92 71 77 79 71 66 79 79 77 74 77 87 79 74 85 103 90 103 90 90 77 87 108 108 87 95 90 85 79 95 90 103 106 95 100 98 92 92 82 108 103 124 122 135 124 145 132 143 124 116 98 92 77 108 100 116 98 108 108 111 85 124 130 116 122 127 116 127 127 124 116 108 108 111 111 114 122 114 98 119 119 111 108 108 
135 135 132 127 114 116 127 111 92 100 114 106 98 106 85 92 82 108 77 87 82 92 69 82 95 87 90 79 71 71 77 100 79 79 61 74 58 63 58 45 63 69 79 71 66 74 77 77 90 95 69 77 85 74 77 90 87 92 100 92 100 82 63 82 63 71 82 87 82 98 92 87 92 95 82 92 82 92 92 87 90 85 82 79 90 71 79 82 71 79 74 79 85 87 98 74 77 82 95 103 103 100 103 85 90 95 103 98 92 92 100 103 87 90 98 100 92 106 132 111 103 153 137 137 127 114 108 90 106 111 100 98 114 108 116 111 111 103 119 119 116 114 111 119 119 116 108 116 111 100 116 98 100 111 103 103 100 106 111 98 
137 150 124 132 130 116 114 111 82 100 98 114 100 108 103 82 119 106 95 79 85 98 95 90 114 95 95 100 87 98 85 90 95 82 90 79 69 82 79 66 90 82 74 87 82 85 79 82 95 98 95 87 95 100 103 71 82 95 87 92 103 95 82 95 77 69 87 92 90 79 98 92 92 100 92 108 85 77 95 79 79 90 90 100 85 100 100 90 87 74 103 87 82 106 98 82 71 87 92 106 114 100 106 95 108 111 95 90 103 98 98 114 111 103 103 103 98 108 114 130 124 158 148 153 140 116 124 111 106 116 114 103 108 114 108 122 122 114 106 119 114 116 111 127 116 108 100 106 111 90 114 98 100 111 116 119 100 111 103 108 
140 150 137 140 135 127 137 116 100 106 116 116 132 122 119 108 114 122 108 122 95 108 108 122 108 108 106 127 106 106 95 108 100 114 114 106 92 100 111 108 92 106 87 108 85 92 106 87 103 106 106 100 90 108 108 111 95 98 100 103 100 106 95 119 108 92 82 87 100 92 100 92 95 108 100 111 103 85 108 87 82 100 100 95 98 100 87 106 95 85 103 92 100 90 92 92 95 92 85 95 100 106 98 116 100 111 100 114 98 114 108 116 98 114 106 114 95 79 130 124 137 153 153 179 148 137 114 122 106 122 122 111 119 127 108 132 106 100 130 119 130 132 124 132 116 114 132 114 127 108 108 100 122 98 111 119 116 111 122 103 
163 153 161 148 145 140 166 132 135 124 124 119 127 127 124 130 130 124 127 106 108 119 119 116 124 119 111 127 111 108 108 119 140 108 116 116 111 111 111 95 100 100 103 114 85 103 100 116 92 100 92 103 119 108 98 106 98 111 108 122 119 124 119 119 114 98 95 90 106 90 106 103 100 106 116 106 100 100 95 111 100 119 106 95 98 95 108 119 92 98 106 103 103 92 116 108 98 71 90 92 100 95 106 114 124 122 103 127 119 124 108 116 108 95 92 111 114 98 111 130 130 140 140 140 156 135 119 124 116 119 122 119 124 116 116 124 114 90 119 108 119 124 103 108 100 122 119 100 114 111 100 87 116 122 108 111 106 114 108 116 
158 156 156 150 148 132 145 135 148 148 127 148 140 140 137 119 143 158 148 124 108 122 132 130 135 122 122 130 100 95 119 127 127 108 122 108 114 119 122 106 111 111 114 108 106 103 106 116 100 111 106 103 137 114 98 114 119 108 127 132 130 130 130 103 111 106 103 114 103 108 92 108 92 114 106 108 116 87 106 108 119 108 122 103 108 116 114 103 108 119 116 108 100 100 116 106 100 85 87 116 108 95 100 103 116 116 87 119 130 108 111 119 108 108 114 108 130 92 100 114 130 124 132 135 161 148 119 132 108 122 124 132 135 119 127 127 127 122 130 137 108 127 116 122 130 135 119 108 90 100 116 103 114 119 111 116 114 122 114 95 
174 166 158 153 166 156 169 158 153 161 143 150 169 137 156 150 156 143 148 130 145 143 143 127 137 124 140 130 103 122 124 130 135 116 122 124 122 130 114 114 116 103 122 127 114 103 122 114 122 114 108 122 145 122 116 114 116 137 124 135 153 119 161 143 124 116 116 124 116 116 90 100 98 111 111 122 122 103 124 135 111 130 124 82 87 119 82 98 122 100 116 100 98 79 124 100 100 95 108 100 98 111 124 111 140 124 124 119 124 122 130 140 114 106 127 116 124 122 98 130 95 143 140 137 137 145 132 122 98 111 130 114 122 119 127 119 116 140 124 127 111 132 116 124 127 108 135 103 119 124 106 106 108 116 95 116 106 132 114 122 
179 174 176 174 158 163 158 148 163 166 156 166 161 137 148 148 163 150 158 130 130 156 135 137 148 150 124 143 122 156 127 153 137 119 130 122 140 108 106 116 122 98 108 114 100 119 124 124 116 114 108 111 145 143 148 137 153 169 148 156 171 161 161 153 127 116 111 143 130 119 130 119 111 135 127 132 153 106 130 119 122 124 132 106 116 150 137 140 143 127 132 130 130 140 153 130 135 119 158 163 158 153 169 137 169 174 158 156 174 148 153 176 145 132 135 145 124 127 108 119 95 145 143 158 156 130 132 124 111 108 122 119 127 132 116 124 132 124 130 111 116 122 111 124 116 108 119 122 111 100 103 90 103 95 111 122 124 103 108 103 
187 197 189 181 171 174 200 169 158 166 171 166 169 161 163 174 169 153 171 158 161 130 140 156 153 148 140 163 114 150 132 156 161 145 132 156 137 143 127 132 153 169 145 127 140 148 166 156 132 140 119 148 156 184 181 179 192 169 169 174 176 156 161 163 166 124 145 156 148 156 156 156 143 156 148 150 179 150 145 153 140 132 166 150 156 166 171 166 176 166 181 179 161 174 181 184 171 169 174 205 197 200 187 176 187 174 181 194 189 174 174 176 169 161 169 156 169 156 171 171 163 194 197 184 176 176 140 127 124 135 124 137 111 127 130 140 122 127 140 127 124 135 119 124 122 122 116 106 106 127 111 92 100 85 103 111 114 116 95 108 
189 207 179 205 207 179 187 202 202 184 179 161 176 171 174 179 171 176 171 166 169 171 158 169 156 179 163 171 156 148 181 181 176 161 163 179 166 166 161 166 179 184 192 176 169 171 187 189 166 176 171 181 194 189 202 174 187 187 181 181 174 187 174 184 153 174 174 174 174 181 174 176 171 163 166 163 176 158 174 166 145 171 184 171 184 184 197 200 181 202 192 194 200 200 200 207 200 189 197 215 200 192 197 205 192 187 192 200 207 202 210 202 192 189 181 202 200 189 192 184 192 210 223 213 200 202 176 189 161 181 169 150 140 130 140 150 148 137 137 127 132 135 127 119 130 116 116 116 108 106 108 92 122 119 106 116 122 114 106 119 
200 238 213 231 223 215 189 213 218 213 213 161 187 200 158 194 218 197 184 179 205 187 194 213 213 207 205 202 207 215 202 205 213 189 184 218 187 197 207 197 205 184 189 181 189 192 187 192 179 181 181 181 194 184 189 176 184 171 187 184 181 181 194 184 179 169 189 169 181 174 189 174 181 163 189 202 176 176 179 189 174 181 181 192 179 187 192 200 192 220 210 210 197 194 205 205 213 205 187 202 210 218 200 189 197 200 181 210 223 200 205 215 202 187 189 202 202 187 207 223 215 220 215 241 241 228 215 218 218 200 194 171 150 179 158 171 171 156 143 130 130 127 114 127 103 135 106 119 127 122 119 98 119 106 98 103 108 135 124 116 
225 231 233 241 215 231 233 231 233 218 223 218 238 213 223 236 246 215 215 223 213 225 207 207 223 218 218 233 207 210 207 187 205 207 197 205 187 192 189 187 200 179 181 184 174 187 181 184 179 179 169 184 192 184 184 192 187 192 187 179 189 200 176 176 179 169 171 176 166 176 171 171 174 181 174 179 184 166 174 171 184 171 184 179 192 192 192 207 207 194 210 215 194 194 205 210 189 202 220 210 215 200 202 210 200 200 189 210 215 192 202 205 210 207 181 202 189 189 236 231 246 231 238 243 243 223 233 215 220 220 228 197 194 189 197 202 189 187 166 143 135 143 122 116 122 124 108 111 100 103 122 106 103 92 92 108 108 111 92 95 
248 246 241 236 233 236 238 248 246 228 243 236 236 228 231 223 228 233 243 241 220 231 238 231 213 228 210 220 197 215 202 194 192 207 194 194 200 194 192 184 202 181 181 194 187 192 202 200 194 192 176 197 192 207 194 197 200 176 184 200 200 189 184 205 192 189 192 187 192 179 176 187 187 181 174 200 184 169 184 179 200 187 202 205 200 194 207 202 223 220 213 218 210 223 207 213 220 200 210 220 223 220 215 200 218 205 210 223 225 213 202 228 228 205 197 202 215 233 225 231 251 236 254 254 254 243 241 228 228 236 233 202 202 210 200 187 179 166 150 153 150 135 122 122 124 108 103 122 116 127 124 108 111 119 106 124 90 116 119 108 
238 241 241 236 228 231 231 243 238 243 233 231 236 238 223 225 215 223 215 243 215 225 202 210 210 213 215 225 207 189 192 197 189 194 194 210 200 192 192 189 192 197 200 187 181 187 181 187 194 192 176 189 179 197 197 207 197 207 187 200 181 184 200 194 192 187 174 192 181 194 187 200 192 197 179 181 181 184 171 176 187 202 200 213 207 205 202 207 205 200 215 215 210 213 213 210 200 194 205 213 220 215 218 223 223 228 210 215 218 210 213 218 223 215 200 213 231 228 238 241 238 248 243 246 241 236 231 236 228 231 215 200 197 213 192 202 176 171 163 150 145 145 122 114 119 114 127 116 130 119 114 103 103 100 108 106 106 119 111 98 
248 246 228 256 256 246 238 243 241 243 213 228 236 225 236 223 218 228 218 228 215 225 202 220 210 213 225 225 223 210 202 205 202 207 192 200 202 205 205 194 205 184 200 194 205 210 187 200 207 197 194 197 194 200 202 200 202 192 200 202 200 189 197 192 189 200 192 192 189 194 187 192 181 192 213 189 197 184 197 187 192 189 213 202 207 189 210 215 215 210 210 220 218 218 228 218 200 189 223 236 228 238 236 225 231 215 218 233 220 215 213 241 231 189 205 236 233 243 248 243 246 256 251 266 256 233 246 223 228 223 220 189 220 213 210 202 184 181 174 156 143 130 130 124 111 122 100 111 119 114 127 95 119 114 114 111 122 111 127 124 
254 269 246 259 266 246 251 233 238 248 251 241 233 228 248 236 243 228 228 218 231 233 220 231 223 213 225 228 207 220 202 207 205 215 218 197 218 213 215 200 207 210 213 202 205 205 218 225 223 215 202 215 215 213 220 207 202 207 202 220 205 205 202 220 213 205 202 210 200 205 205 205 192 202 189 218 202 202 213 202 192 210 218 192 213 220 225 215 215 223 233 238 215 220 236 225 200 233 228 248 236 233 233 223 243 228 223 231 225 238 241 243 223 225 223 243 236 248 243 243 241 266 259 259 264 251 236 223 236 228 228 213 218 200 187 213 187 181 176 176 153 150 148 124 114 122 135 122 114 111 111 116 114 122 111 135 135 116 122 119 
259 264 243 259 256 261 243 256 251 246 243 238 256 254 246 233 241 246 231 228 225 231 231 220 220 233 220 236 228 228 218 220 225 228 238 205 223 218 215 213 218 210 202 194 197 205 207 220 231 223 213 202 225 231 220 210 223 218 215 225 220 207 220 228 213 215 210 207 213 218 223 213 207 207 210 210 223 215 218 202 200 213 223 213 215 228 233 236 231 233 231 233 228 241 246 246 205 210 246 238 243 248 254 236 243 233 225 223 243 236 243 254 246 231 233 246 238 254 254 269 259 279 261 254 274 264 246 225 236 248 241 215 213 207 213 213 202 200 197 187 153 174 145 124 127 122 132 122 119 130 122 114 98 95 95 103 124 127 130 132 
279 266 251 264 272 292 274 259 243 259 248 251 246 243 256 241 236 254 243 243 243 246 238 246 233 248 220 256 238 236 238 241 225 220 225 218 231 231 218 220 233 220 215 220 220 220 218 228 228 231 241 215 238 251 243 231 213 225 202 218 228 220 223 210 228 223 228 213 215 223 223 213 220 207 213 215 213 218 236 223 207 205 218 207 218 220 238 241 248 236 243 243 238 238 225 238 215 225 241 251 243 256 261 246 254 251 231 241 254 248 243 259 243 264 238 243 246 248 254 238 282 274 284 261 272 277 251 238 231 254 251 231 231 228 223 233 210 192 181 194 161 166 153 130 140 127 135 124 132 108 122 127 114 127 122 111 116 127 124 127 
277 305 251 274 269 289 243 274 264 264 264 246 264 248 261 248 248 259 241 233 238 256 261 243 246 220 238 246 248 254 246 248 231 220 233 220 233 236 225 213 228 220 210 223 241 233 246 233 218 233 241 236 228 243 243 243 228 225 228 238 241 231 228 228 220 220 236 225 236 231 225 220 213 215 223 223 220 228 223 220 207 202 228 228 231 238 241 246 246 246 238 241 251 236 248 238 231 246 246 256 233 256 256 238 248 251 243 243 246 254 254 269 261 248 243 261 264 264 248 261 264 282 264 264 289 274 277 236 238 248 248 231 223 223 213 213 205 184 210 184 163 161 156 127 140 132 124 132 106 116 114 108 135 132 116 122 124 127 124 127 
289 277 274 300 289 282 264 289 282 269 272 279 289 261 272 279 274 277 251 259 272 264 254 256 264 251 243 269 259 259 264 256 272 266 248 233 241 236 243 225 248 241 241 248 254 238 248 256 248 248 238 251 241 238 264 241 243 246 246 241 243 241 241 248 246 236 236 231 228 233 238 223 233 223 236 225 236 236 228 243 231 228 223 223 233 241 264 246 238 248 254 246 233 243 236 243 248 251 241 261 254 261 264 256 256 243 248 246 264 266 266 266 266 261 264 254 243 246 261 277 266 264 266 266 272 259 248 248 246 256 259 236 241 225 231 197 215 197 197 189 184 171 153 140 137 135 127 116 127 114 119 119 119 135 111 122 130 114 130 140 
300 282 274 289 292 274 284 279 302 266 289 264 297 251 289 264 251 264 261 274 287 272 282 272 248 264 254 266 264 264 259 259 261 254 251 264 256 256 251 248 256 251 256 241 248 241 251 246 254 241 241 241 243 246 259 238 246 256 238 251 238 243 220 243 236 264 246 236 254 246 241 236 238 248 228 248 246 238 246 223 238 233 246 225 241 241 246 251 248 254 254 261 256 248 256 256 248 243 256 272 259 266 261 259 266 264 261 254 261 264 261 266 266 266 246 259 254 254 269 279 277 272 266 292 284 259 238 251 241 246 246 231 231 218 207 220 207 215 192 184 179 169 140 143 127 132 150 111 130 122 114 114 111 127 111 127 135 143 124 106 
318 300 292 300 310 287 289 323 295 295 287 274 287 295 274 279 272 284 279 282 295 292 282 266 266 277 277 277 261 279 289 259 259 256 256 266 256 272 246 254 264 266 254 251 251 259 251 266 272 256 248 259 254 256 266 254 259 264 256 248 261 256 254 251 248 251 259 251 251 236 246 248 251 236 236 248 248 231 254 243 231 241 231 241 241 254 251 264 254 254 266 256 241 248 256 259 261 256 274 269 274 264 266 261 266 264 272 269 261 274 274 277 269 277 261 256 259 259 272 259 266 259 259 254 292 272 228 220 220 225 248 223 228 228 205 228 210 197 184 174 169 187 158 161 143 143 137 127 135 116 132 119 127 122 116 108 130 108 116 122 
307 323 313 297 305 307 274 307 302 297 313 295 295 284 292 287 284 282 274 269 274 287 274 246 264 274 266 284 266 272 277 279 266 264 264 269 266 269 272 259 266 248 266 248 261 256 261 251 254 251 259 254 264 261 248 256 269 264 251 254 261 261 261 246 256 231 254 251 238 238 241 254 248 243 225 248 254 248 251 243 236 241 243 238 238 243 264 254 251 259 266 256 269 269 254 266 266 261 272 282 264 272 282 274 274 279 254 277 287 279 274 284 284 274 269 284 289 259 274 266 256 264 246 277 287 264 233 218 210 228 220 220 215 218 223 202 202 205 194 184 169 181 156 161 156 124 140 143 135 114 116 98 127 106 108 111 137 119 108 108 
341 333 318 307 323 307 307 300 333 300 302 289 297 302 289 307 297 287 297 282 300 295 295 264 284 282 272 297 251 287 292 269 266 279 272 261 261 282 261 266 259 266 274 256 264 264 261 289 261 266 259 274 277 266 277 264 274 269 261 269 261 251 254 264 256 251 254 256 259 251 261 233 238 236 241 243 254 251 251 246 248 254 254 251 251 259 266 259 261 266 274 266 269 272 272 279 269 261 269 284 266 282 277 289 277 295 274 277 282 284 272 284 279 264 269 248 246 274 277 274 272 248 254 243 266 269 243 236 225 236 220 194 225 233 225 218 218 205 205 187 187 187 163 179 166 135 140 140 140 124 124 135 140 127 124 122 122 130 132 127 
328 323 302 318 325 320 320 328 305 307 295 302 297 284 287 297 289 300 289 284 302 297 297 282 292 272 277 266 264 272 289 277 295 282 272 295 269 289 272 259 264 261 256 248 261 259 277 266 264 266 256 254 266 259 264 274 266 269 256 264 266 259 259 277 256 256 259 243 251 264 254 254 256 236 236 243 256 248 269 246 254 238 254 254 251 261 256 261 264 264 284 289 261 246 264 274 254 246 279 274 282 279 279 295 261 287 274 279 289 279 287 284 284 259 272 259 231 256 256 284 274 238 246 233 261 272 246 210 197 207 200 220 223 231 228 205 200 187 184 192 174 171 169 156 137 140 135 135 127 116 116 130 132 116 122 111 119 111 119 119 
348 341 333 356 348 325 328 336 341 323 320 313 313 297 295 300 295 305 307 305 307 315 302 310 313 284 292 274 292 284 297 289 289 289 277 284 289 295 277 269 279 274 292 289 279 274 277 279 272 261 279 266 272 269 282 277 274 274 277 274 300 269 269 279 282 274 274 259 254 259 277 256 266 251 256 251 259 259 264 251 256 264 274 259 269 272 279 269 277 274 297 284 282 274 292 279 284 272 274 305 289 292 297 292 307 287 282 295 302 284 292 300 287 292 264 266 266 248 266 266 259 266 272 266 274 279 225 184 192 187 210 223 205 233 218 205 194 192 200 197 192 181 161 163 166 166 135 124 137 143 148 124 119 116 127 124 122 114 137 98 
336 338 336 348 323 333 318 343 338 300 305 315 310 318 295 300 325 318 307 300 307 300 318 318 307 284 272 307 282 292 307 315 284 277 289 284 272 284 279 282 282 279 282 289 292 282 277 282 287 269 274 274 282 277 279 282 274 279 272 287 282 274 279 287 274 277 269 266 272 269 264 279 266 282 251 269 256 279 277 254 259 259 246 261 259 272 284 277 272 287 284 289 284 282 284 282 284 279 277 295 287 292 287 292 277 292 289 287 297 287 310 295 284 302 289 274 269 254 251 246 259 269 231 256 254 251 215 174 179 176 197 189 218 223 220 220 207 200 176 187 179 176 171 166 163 161 130 124 145 114 114 103 124 130 124 114 135 124 140 98 
336 351 336 346 333 338 348 348 343 323 328 338 310 307 302 315 320 341 313 302 318 307 310 307 297 302 289 295 279 289 302 282 295 292 289 279 282 284 284 287 282 279 287 277 274 287 292 277 272 277 277 289 289 289 282 284 274 279 297 289 289 287 292 289 284 284 264 279 284 287 269 277 272 272 269 264 274 266 292 279 251 241 254 264 284 279 282 274 272 287 295 289 297 274 289 300 295 284 292 302 277 297 300 302 289 292 289 287 300 292 305 287 287 315 292 287 300 248 231 236 220 233 215 200 231 233 187 166 143 169 187 192 220 225 225 223 205 176 166 179 163 176 184 145 148 143 130 124 127 111 106 108 130 116 124 103 130 122 127 103 
348 354 338 356 348 343 348 336 318 338 323 346 320 325 310 313 320 328 318 297 323 305 310 305 305 305 292 310 300 295 289 313 297 297 287 295 297 300 279 292 287 289 300 295 287 287 284 295 297 282 279 287 287 297 295 300 282 302 287 292 297 289 295 284 300 300 284 282 279 287 282 292 282 282 277 274 289 277 284 282 272 266 261 261 284 289 282 287 292 297 295 292 287 282 305 284 289 297 292 300 282 310 300 300 297 302 292 295 300 292 305 305 313 305 302 282 269 289 256 241 220 215 169 174 187 197 181 169 156 158 181 187 218 200 248 228 202 184 171 166 163 174 174 145 148 140 135 124 140 127 114 127 135 132 132 122 108 111 124 119 
348 346 336 346 351 366 343 343 328 325 341 333 330 330 330 318 325 330 313 318 320 313 313 313 305 323 302 336 302 300 305 307 305 305 289 297 300 307 277 284 295 295 297 287 289 282 292 289 289 284 297 295 287 305 289 292 302 295 292 300 297 274 300 289 284 302 295 287 292 295 300 287 295 277 292 284 277 284 284 287 284 272 292 292 292 300 295 292 295 297 302 282 277 292 305 307 300 302 302 305 305 310 305 318 302 302 292 300 297 300 305 315 284 274 274 269 254 231 231 197 202 187 187 169 187 202 197 163 153 158 179 189 194 205 215 200 181 171 156 163 166 166 158 145 140 132 124 132 143 122 137 124 132 119 122 119 127 124 111 124 
361 369 343 361 351 348 348 354 343 330 341 328 348 336 320 313 336 320 323 323 318 318 336 305 307 328 315 325 305 315 318 318 330 328 325 282 323 300 287 302 307 297 305 297 302 310 315 289 310 310 289 297 307 315 307 300 313 320 292 300 313 307 302 310 315 320 302 287 300 292 297 302 295 297 295 295 313 300 284 295 279 289 292 297 300 297 302 300 292 310 313 300 302 297 310 310 310 318 313 323 320 318 323 310 315 310 310 302 297 315 302 313 307 297 246 218 205 174 200 202 189 166 176 171 184 210 202 181 184 187 200 179 179 202 181 179 171 161 166 169 153 145 161 161 130 140 143 130 127 135 140 116 140 108 127 114 116 111 127 135 
382 371 361 366 359 361 364 359 351 346 333 328 341 333 333 346 348 338 330 338 328 325 325 318 328 318 310 325 318 300 307 318 318 310 318 302 300 292 292 315 305 310 313 305 302 315 302 297 318 313 313 300 320 307 302 295 310 305 302 297 320 302 307 310 297 307 287 302 295 289 289 292 287 284 300 300 300 287 289 284 295 292 287 297 295 297 297 300 307 305 302 300 295 300 313 300 295 307 305 320 307 325 318 318 318 323 313 300 315 295 300 302 300 325 307 266 218 194 174 153 166 184 184 202 231 238 207 192 166 176 200 187 187 189 176 181 174 161 179 166 163 148 140 132 153 153 166 135 132 148 140 114 116 119 124 114 116 114 127 122 
366 377 374 374 377 361 359 338 356 336 348 341 351 343 330 341 338 361 346 336 328 341 323 325 325 341 315 338 318 336 323 318 323 302 320 315 323 315 310 305 307 310 313 318 315 313 315 318 313 302 310 315 323 313 310 302 323 323 302 313 318 310 313 307 323 320 302 307 305 315 307 300 315 297 305 300 297 302 297 297 292 289 300 295 310 300 305 315 300 305 302 300 300 302 310 315 318 297 318 325 315 328 330 307 307 318 320 313 318 307 295 313 289 320 289 259 241 220 174 197 194 231 218 243 274 261 220 192 189 210 210 176 184 187 189 184 174 153 174 161 174 153 148 140 166 163 163 137 156 143 143 122 132 111 111 114 135 137 130 132 
392 377 374 379 366 379 389 366 361 348 336 336 354 343 356 343 346 346 338 336 346 341 348 343 330 343 328 343 338 328 338 333 318 346 323 320 323 325 320 330 320 320 305 325 310 315 307 313 313 323 336 320 328 315 325 313 320 318 313 315 313 313 310 313 310 320 305 318 310 307 313 307 297 302 313 318 307 292 313 315 302 300 307 302 307 300 310 305 305 313 313 318 310 305 310 307 318 313 313 330 333 328 336 313 320 307 307 305 315 307 305 310 302 313 310 292 259 218 223 231 231 251 261 256 269 272 233 220 225 223 238 194 179 200 174 176 179 163 166 184 171 166 145 140 171 148 158 158 145 145 130 132 119 132 108 127 143 135 132 135 
394 394 374 384 379 361 377 371 366 351 359 361 369 346 356 343 369 359 338 351 348 346 356 348 348 348 348 359 364 343 346 341 346 343 333 328 333 346 328 343 333 330 323 318 323 325 330 330 325 325 313 333 328 333 330 330 341 330 320 315 323 323 328 336 318 320 323 328 325 323 323 318 323 315 315 323 315 318 315 310 305 313 323 323 325 318 341 330 318 328 313 325 323 328 320 318 310 315 338 333 333 318 328 315 320 310 307 307 313 305 297 315 300 295 279 269 266 220 215 246 236 251 266 279 266 261 246 233 248 259 233 205 197 231 189 210 192 176 161 169 189 189 184 166 161 158 171 161 169 153 158 140 135 137 122 127 132 140 130 135 
389 392 374 377 394 384 389 382 366 366 351 361 369 369 366 348 351 346 343 359 361 348 351 351 356 354 341 356 348 354 356 343 333 341 330 351 323 343 330 328 330 343 341 330 325 330 333 325 333 333 315 325 343 333 338 348 330 333 328 328 325 336 328 330 336 333 310 313 307 315 328 313 320 318 325 333 315 313 318 320 313 320 328 323 323 313 318 330 318 328 320 325 313 313 325 320 323 328 341 330 338 333 325 320 330 325 297 297 315 313 318 330 318 269 233 231 233 241 233 218 236 264 266 266 269 264 248 241 248 236 233 210 220 213 200 189 200 187 187 184 207 184 189 184 184 161 192 181 166 140 140 137 145 127 122 130 127 150 127 130 
404 407 384 397 382 392 382 384 374 369 351 369 371 361 348 361 366 366 361 346 361 364 354 356 354 348 338 359 354 366 354 338 343 333 341 341 333 348 336 341 330 341 348 338 333 343 338 338 330 330 338 330 323 336 354 341 328 328 338 333 330 341 333 320 330 310 313 325 313 330 333 325 323 310 320 320 315 310 313 307 320 320 333 325 315 307 320 325 302 320 318 323 305 320 325 323 320 323 318 328 325 320 333 320 318 330 313 313 313 302 289 284 256 215 218 248 266 269 207 207 246 259 256 246 277 282 238 236 243 238 238 233 231 207 207 207 181 187 169 194 202 210 189 174 187 184 176 169 163 145 148 127 143 111 127 119 132 143 127 132 
389 392 387 397 402 394 387 392 379 382 369 384 379 366 361 371 356 364 361 369 361 366 366 364 361 348 359 364 348 343 343 333 361 341 348 343 330 338 348 341 341 351 333 333 338 348 346 333 343 338 341 341 341 348 359 338 336 333 338 351 351 330 354 333 330 338 341 330 320 325 333 325 320 320 341 315 318 338 325 330 313 320 320 336 338 330 328 328 328 325 333 330 305 323 328 341 330 315 330 330 323 330 330 302 305 310 307 315 307 279 248 205 158 192 187 248 243 189 202 176 210 254 259 261 272 261 256 254 238 248 251 233 228 233 192 207 187 200 197 220 213 225 215 207 213 194 205 181 176 169 153 135 143 135 130 145 140 145 137 148 
417 409 392 415 404 399 392 402 399 369 384 374 377 364 374 361 371 369 379 354 374 371 374 351 351 366 351 364 359 356 341 346 369 351 359 346 354 356 336 336 330 348 343 341 330 374 341 348 354 346 341 346 341 351 341 341 348 354 341 348 354 330 346 338 348 330 338 346 336 338 348 354 346 328 338 333 328 336 333 333 330 325 330 343 325 323 330 333 320 341 336 338 320 320 351 330 346 320 333 336 305 336 328 302 305 310 305 282 279 236 179 181 166 174 184 189 187 184 176 184 213 259 259 256 259 261 254 254 254 254 254 213 207 205 215 228 197 194 187 215 223 228 233 202 210 197 197 169 166 169 166 163 156 145 156 158 145 145 132 135 
409 407 420 432 412 394 394 399 402 392 382 374 387 377 374 369 394 377 369 371 364 361 359 374 369 369 371 371 351 361 364 359 371 359 361 356 354 366 346 341 343 348 366 356 348 361 364 356 354 341 354 354 354 346 361 351 348 348 359 354 356 354 356 348 359 351 336 351 351 346 343 354 351 348 343 346 338 343 333 336 341 346 338 325 333 328 325 333 343 323 346 348 323 325 346 330 338 328 313 330 328 333 333 320 315 325 318 315 292 197 184 194 184 176 197 205 194 179 197 223 248 251 269 274 279 272 277 269 259 279 254 213 210 207 218 205 194 210 197 220 223 210 218 228 236 220 218 200 176 184 187 163 174 161 163 161 156 150 163 145 
427 412 397 417 412 402 394 407 412 382 384 387 394 384 384 371 382 382 379 371 371 359 402 377 384 374 371 382 366 364 369 364 382 356 364 366 354 351 354 341 354 343 354 346 351 374 364 361 359 348 354 364 351 366 354 341 356 351 354 361 351 356 364 364 369 356 354 364 351 351 359 359 338 346 341 348 346 346 338 359 333 338 336 333 341 333 328 343 328 336 333 346 338 346 341 343 341 328 325 336 328 318 315 333 320 310 318 305 282 248 238 231 184 197 181 220 202 184 205 220 248 259 269 277 284 261 264 251 269 251 233 225 220 213 207 218 218 197 192 225 228 231 202 210 215 220 197 187 179 205 197 169 166 153 171 156 150 171 169 163 
442 412 409 422 412 409 409 399 392 384 394 382 402 382 404 394 384 389 379 382 389 399 387 366 371 371 369 377 392 364 377 384 369 377 377 369 346 366 361 361 354 359 359 351 359 348 371 374 354 351 354 371 354 356 356 354 359 364 356 346 366 343 359 351 359 364 351 351 354 346 361 354 356 354 354 348 348 354 354 354 343 351 343 346 343 338 348 336 330 330 346 354 328 338 330 341 336 336 328 328 328 336 330 318 320 305 315 310 300 307 282 225 181 187 169 205 231 194 210 248 246 251 264 274 279 251 266 251 261 261 246 228 218 207 192 202 223 200 233 218 225 246 246 210 197 213 200 194 176 166 184 187 163 166 187 156 161 176 176 181 
427 412 409 412 420 412 409 399 412 397 409 394 397 394 397 387 389 377 387 394 382 402 387 374 382 384 382 397 379 374 377 371 379 371 371 369 374 366 369 366 354 366 374 364 356 371 364 379 361 359 374 359 377 371 359 361 366 366 361 351 359 369 361 359 361 359 364 359 348 348 364 343 351 354 359 351 343 343 354 333 338 336 341 338 333 330 343 328 341 330 346 343 323 343 336 343 336 315 333 336 328 318 341 305 313 313 315 307 310 323 289 259 197 197 184 210 233 213 241 236 241 251 269 269 272 264 272 254 251 259 246 233 241 215 205 241 236 241 223 228 231 254 238 215 223 207 181 169 179 166 205 200 187 179 205 179 174 169 189 181 
442 437 422 442 422 425 430 409 425 404 407 404 394 409 399 377 399 407 402 404 397 392 379 377 392 394 389 392 384 384 394 384 387 374 384 374 371 379 366 377 364 382 366 364 382 382 397 377 369 374 354 369 382 377 379 377 379 374 374 369 377 382 377 377 371 371 361 374 348 351 351 359 351 359 356 369 359 359 338 346 354 354 343 354 338 346 346 341 351 338 338 336 333 330 330 341 338 330 333 338 338 323 330 333 318 338 307 313 320 307 269 228 192 184 179 228 238 218 238 246 241 248 264 256 269 272 272 272 269 272 277 241 248 220 236 272 225 241 241 256 228 236 231 236 231 215 202 194 194 194 210 202 200 213 194 189 202 174 179 179 
430 437 435 437 425 425 417 412 425 425 425 404 415 420 397 387 397 397 392 412 409 402 389 397 412 389 399 412 389 402 384 384 377 382 387 371 379 379 384 392 374 377 379 369 397 392 392 387 374 366 377 377 384 382 377 371 384 384 382 384 377 374 374 377 382 364 366 377 361 371 369 371 364 359 364 364 354 348 348 369 343 336 354 343 346 341 338 341 346 333 336 336 338 325 341 328 328 310 341 354 348 325 330 328 325 333 323 310 320 261 251 200 187 176 197 218 207 192 220 215 225 259 251 264 269 254 277 264 261 287 269 248 241 243 254 254 248 274 254 254 236 210 218 241 225 241 225 223 218 215 236 202 210 213 205 213 200 184 187 179 
470 458 452 440 442 447 425 435 445 432 422 409 425 422 402 412 404 412 397 417 409 409 407 392 392 389 394 409 399 392 397 387 374 389 389 392 374 389 382 392 402 394 397 394 389 389 394 399 374 364 387 377 384 382 387 369 379 382 366 382 389 377 397 389 387 371 377 379 369 377 374 361 371 366 366 366 374 359 359 354 354 356 351 348 341 348 351 351 343 346 346 351 343 348 333 346 343 328 336 356 346 346 351 320 328 323 343 320 313 302 202 220 187 189 213 233 236 213 207 192 254 266 246 251 228 248 266 269 264 277 277 256 243 241 233 266 279 256 236 233 197 184 213 236 241 246 251 238 238 246 228 213 205 223 213 210 200 202 207 189 
452 465 447 452 440 417 430 440 440 422 415 417 437 422 415 422 412 399 412 420 397 407 409 402 397 404 402 412 394 392 392 399 397 402 404 392 402 384 404 384 387 394 384 387 397 389 377 384 382 369 377 394 382 394 394 392 384 377 389 377 369 366 382 364 366 369 379 369 364 366 377 374 371 371 377 374 366 348 354 361 341 356 356 364 354 348 364 354 341 343 346 343 300 310 320 343 341 333 351 346 354 343 328 323 330 310 318 336 333 297 236 246 243 261 259 256 228 181 194 189 233 248 254 241 233 243 243 248 259 282 277 264 243 254 254 259 246 243 210 220 194 194 200 215 228 251 233 251 246 218 231 220 228 223 218 225 192 200 176 176 
473 460 460 445 442 435 447 427 440 432 415 425 432 435 425 427 412 422 427 427 412 435 425 420 409 402 392 399 394 399 387 402 402 407 402 404 382 394 389 387 402 415 397 389 394 397 384 392 384 387 387 384 392 392 409 387 397 392 382 387 392 371 374 389 389 379 392 382 364 371 379 377 369 369 377 382 361 374 359 359 361 361 361 359 356 354 354 348 351 343 351 348 325 330 351 354 336 361 343 354 328 343 330 328 333 323 328 323 307 343 320 307 261 282 259 243 231 179 192 174 207 233 269 282 264 264 256 218 269 274 264 254 254 266 251 238 236 228 197 207 187 187 197 202 207 223 233 251 248 223 236 231 228 238 231 236 213 220 202 174 
483 447 450 470 442 458 465 452 450 432 432 422 427 425 437 422 422 440 430 420 425 407 415 427 435 404 422 415 422 409 404 407 407 415 394 404 392 407 404 379 404 392 382 402 402 407 394 399 394 382 389 399 387 409 409 387 397 399 389 394 382 384 384 364 402 389 377 389 384 369 384 379 371 374 382 377 369 377 371 369 369 364 366 366 359 364 364 364 364 351 359 346 356 346 366 359 338 356 361 361 354 341 346 333 323 323 318 330 323 313 305 336 292 259 256 246 241 207 205 184 187 231 256 266 282 264 274 200 261 251 231 228 218 228 220 213 192 181 174 187 184 181 181 197 200 223 238 246 266 241 243 228 223 236 243 254 218 233 241 210 
480 468 460 478 440 440 455 445 463 465 450 435 445 432 445 427 425 425 430 425 425 427 427 430 422 415 409 417 417 407 430 409 409 404 415 415 412 402 394 397 392 412 397 392 394 399 392 392 394 377 392 387 397 404 417 402 389 389 384 389 394 384 387 397 394 384 399 374 371 379 384 384 384 366 387 384 384 374 377 374 366 371 379 361 361 361 361 364 366 348 369 366 366 369 361 359 354 346 348 346 351 346 341 333 328 315 328 336 323 325 292 300 210 202 210 236 241 228 215 202 205 223 251 264 292 284 266 238 181 202 179 153 166 202 225 192 189 179 181 181 194 189 189 197 202 215 225 251 246 254 243 231 243 259 256 243 248 243 243 238 
478 470 473 465 463 445 442 447 445 442 440 447 442 445 440 452 440 445 430 420 437 425 427 417 425 415 415 427 420 412 422 425 404 420 399 402 402 409 412 404 407 409 404 407 402 399 392 397 394 389 392 392 415 407 399 399 392 409 402 394 392 389 387 402 402 387 377 387 394 377 371 382 377 364 377 374 379 389 384 364 377 366 356 374 374 364 356 366 366 351 364 361 359 343 341 359 341 338 348 348 346 351 354 338 330 343 315 320 320 282 228 210 194 189 197 189 215 228 223 200 213 215 223 243 292 289 274 243 171 169 171 161 161 174 233 192 205 184 187 161 184 202 192 194 197 210 225 228 228 248 246 231 231 243 256 241 246 238 243 228 
490 475 470 465 455 465 445 463 463 432 452 458 440 440 435 430 420 432 422 432 437 417 420 420 440 420 430 422 417 425 420 415 407 415 427 422 394 409 402 404 402 407 399 392 399 392 392 394 394 394 392 402 402 397 402 394 402 402 392 399 394 382 397 399 387 392 394 389 384 371 384 374 377 369 374 379 361 379 369 364 364 359 354 354 369 346 356 354 351 348 346 354 343 330 338 348 338 338 338 338 343 333 330 341 330 336 289 300 297 225 161 174 179 189 171 179 213 215 223 215 225 205 218 223 279 295 274 233 163 184 156 124 161 181 213 202 200 184 192 176 179 194 187 179 169 189 205 225 248 243 259 236 241 246 238 248 246 261 248 246 
483 460 475 460 460 463 440 452 450 445 442 440 455 445 430 447 445 437 425 432 442 445 430 427 415 420 422 432 422 412 420 417 415 417 407 420 407 402 404 402 402 407 417 402 402 399 412 407 397 389 397 404 409 412 399 402 402 407 389 402 392 402 392 404 399 399 384 397 389 377 382 389 379 364 379 366 366 369 364 364 369 359 348 354 354 343 354 336 351 354 348 343 356 348 333 341 330 336 328 330 336 330 341 330 343 348 323 282 210 176 189 171 171 181 194 179 176 184 225 218 213 236 194 228 248 277 261 213 181 169 161 130 176 189 189 197 200 197 187 171 174 171 184 192 176 176 215 233 261 241 248 241 243 251 233 241 238 251 251 254 
483 485 470 485 468 475 460 478 473 463 468 460 452 447 440 412 430 450 422 420 437 432 442 432 427 420 427 437 432 417 427 422 425 422 409 415 409 417 409 409 404 417 404 412 420 402 412 409 407 399 415 407 415 417 412 407 422 404 392 394 409 387 389 404 394 404 382 382 379 389 379 384 382 366 369 371 374 382 366 382 359 371 348 343 361 354 348 348 348 354 343 343 343 343 348 341 313 325 310 341 341 343 356 354 341 323 287 213 176 158 171 181 169 197 181 197 205 202 197 223 220 220 210 228 223 228 218 207 194 187 179 176 197 205 189 205 200 189 171 176 176 163 184 192 179 189 236 223 243 238 231 254 248 282 251 261 251 251 248 254 
508 490 485 468 468 473 478 478 463 450 447 460 460 445 455 432 437 450 427 432 435 432 435 430 432 440 430 442 420 432 425 412 409 417 409 420 415 427 407 394 409 430 422 415 422 409 404 420 409 425 407 415 420 412 415 415 404 399 402 415 404 404 399 397 402 397 387 399 404 384 377 389 397 389 371 377 377 366 364 374 369 364 348 359 346 359 351 361 366 351 348 356 338 346 343 351 330 313 330 333 348 328 315 295 295 261 223 176 194 169 181 207 174 181 171 192 189 194 243 259 241 236 225 205 213 223 205 192 202 205 205 205 215 225 205 207 194 176 174 166 181 194 194 202 181 184 215 238 254 241 248 256 248 272 259 261 272 264 272 259 
493 468 493 475 473 468 483 463 460 463 460 460 455 445 445 437 437 458 435 450 437 437 442 430 427 445 422 442 427 432 432 430 432 420 430 415 422 430 425 415 412 417 407 407 412 412 402 420 409 407 417 394 404 412 404 409 394 409 407 409 402 397 409 397 402 392 379 389 399 399 392 379 382 384 366 394 387 366 361 366 364 356 348 333 356 354 346 359 354 343 359 343 338 330 336 343 315 328 338 333 333 323 292 243 228 213 187 171 187 189 192 207 189 169 189 192 218 246 251 254 241 248 241 233 220 220 205 189 187 189 207 194 205 205 210 200 179 166 179 166 184 187 192 192 192 205 220 233 243 256 261 248 261 261 256 254 261 264 269 243 
501 488 503 488 490 490 498 478 465 470 463 465 455 455 460 460 468 455 463 445 460 452 455 458 450 435 435 442 430 445 442 427 435 442 445 427 425 422 407 394 432 425 432 422 415 417 412 425 420 415 415 402 420 412 425 399 417 420 430 407 420 409 409 402 394 397 387 389 397 417 384 379 384 392 379 387 389 384 382 377 364 366 371 369 369 356 343 354 356 343 354 338 330 320 338 330 320 302 318 323 297 261 184 181 189 184 205 187 192 192 215 213 184 213 210 220 254 251 277 259 256 261 256 241 228 205 192 218 200 184 202 184 202 207 184 200 187 189 181 174 194 202 220 194 197 213 228 225 254 251 269 259 248 248 261 272 269 259 266 256 
478 473 493 485 480 498 496 468 473 468 473 463 470 455 460 450 458 458 458 465 455 452 458 447 445 437 455 442 432 445 447 432 422 435 442 427 420 422 420 422 425 425 420 417 422 430 412 425 422 412 412 415 412 409 420 415 407 412 409 407 420 415 394 397 412 392 402 402 399 387 387 377 374 379 369 371 371 382 379 366 374 359 374 366 359 356 348 351 325 333 343 338 333 313 320 310 292 300 300 297 274 207 200 176 174 194 200 197 171 179 189 223 197 210 213 246 259 264 259 259 228 254 246 236 246 238 233 241 200 192 158 197 189 187 184 192 174 171 171 194 176 176 181 225 231 236 254 228 266 248 272 254 251 246 238 236 256 251 241 261 
508 501 488 478 478 475 483 485 470 480 465 460 458 452 463 440 465 465 445 460 458 470 463 463 450 447 450 450 432 437 435 432 440 440 442 430 422 432 432 417 440 425 417 404 420 417 420 417 412 425 420 412 404 409 409 415 404 417 402 404 407 402 389 402 399 394 389 384 402 387 371 377 389 389 379 382 382 384 374 384 374 374 361 361 351 354 356 364 330 336 338 318 341 310 330 305 300 305 305 307 243 210 174 189 171 194 171 189 179 184 187 213 207 231 248 264 264 259 243 251 259 243 231 238 228 251 218 231 228 225 213 220 205 169 174 174 179 187 166 179 176 189 200 210 228 248 236 236 233 238 233 228 248 241 254 261 243 248 254 256 
506 518 503 498 483 485 465 470 473 478 455 473 468 488 470 458 468 470 455 452 463 473 468 452 463 455 455 458 460 458 450 435 430 437 445 442 432 442 463 440 447 437 432 422 432 437 417 445 420 422 417 409 409 422 417 420 420 407 422 417 399 399 394 399 412 397 379 397 394 384 392 404 371 384 384 387 374 382 377 379 374 369 364 369 354 354 348 351 336 341 336 333 333 323 333 330 302 300 313 320 289 274 213 181 200 200 184 192 187 181 197 238 248 251 256 251 246 251 259 264 254 238 248 251 243 251 233 220 205 220 233 236 213 197 189 189 174 189 176 176 176 207 218 233 259 248 238 238 231 248 243 233 261 251 241 246 256 266 248 246 
518 516 503 493 496 518 493 488 483 480 460 468 483 490 460 452 468 480 470 460 463 480 470 463 473 468 463 463 445 473 458 447 450 450 440 437 445 442 447 437 437 445 430 425 420 422 422 437 409 432 420 417 412 420 435 412 412 407 412 422 415 407 404 394 409 394 382 387 392 397 394 407 377 361 369 377 382 379 387 379 371 369 366 374 354 356 348 364 336 336 346 341 320 325 325 323 300 313 315 307 292 254 272 277 220 205 187 174 202 174 223 269 256 274 238 243 251 248 266 259 241 248 248 264 238 246 220 213 202 238 220 228 228 187 166 181 181 174 194 184 176 215 233 243 233 241 241 233 238 241 256 236 241 241 238 251 243 266 248 254 
528 518 506 488 493 493 501 483 503 483 478 468 485 470 452 463 452 473 458 447 458 455 463 460 460 452 455 470 447 460 450 452 440 445 437 447 447 452 440 430 440 435 447 430 430 420 420 440 415 417 422 427 415 415 420 399 409 422 399 412 407 407 387 392 384 389 392 402 402 399 392 389 374 369 371 382 379 384 387 382 364 359 369 361 348 351 348 356 336 346 328 330 313 302 313 302 305 282 297 300 266 274 289 277 266 231 176 174 192 181 218 266 256 259 251 228 231 233 238 238 231 248 266 254 251 238 207 207 194 205 231 187 194 179 169 171 181 189 171 171 194 223 231 236 236 264 241 223 238 231 218 233 259 259 256 259 246 236 256 254 
521 513 526 506 506 503 483 503 501 480 475 496 496 463 470 473 460 468 460 473 465 452 473 473 455 473 473 473 455 458 442 447 445 445 440 442 452 452 435 435 435 437 437 422 420 440 432 432 430 437 417 412 417 415 417 425 409 415 412 417 420 399 409 409 394 397 392 392 384 389 387 392 384 374 374 377 374 397 387 379 366 374 354 361 354 356 351 351 333 336 354 338 318 305 330 313 295 297 282 264 218 233 243 274 282 215 153 187 223 225 248 259 256 269 243 223 223 225 241 248 243 266 264 261 272 251 248 220 156 169 194 187 176 187 171 189 213 192 200 171 200 228 241 233 241 228 228 231 236 225 218 238 261 251 259 251 266 264 269 264 
523 531 521 523 506 511 508 501 511 508 511 490 493 483 480 478 485 485 485 475 465 480 465 468 460 473 473 485 470 468 455 452 468 458 447 452 442 442 437 442 445 435 435 430 427 440 447 452 445 435 430 432 430 425 412 422 425 425 425 420 420 420 409 409 397 399 384 404 399 407 394 407 389 384 379 379 392 387 377 371 374 361 361 374 359 371 369 343 374 361 371 313 325 297 302 284 269 251 236 215 194 194 218 202 210 194 213 223 251 243 266 266 261 246 241 246 241 246 251 259 259 256 264 264 277 259 243 220 194 207 215 213 220 218 176 215 220 220 207 213 246 246 233 256 233 218 236 254 248 248 248 254 261 261 264 264 274 272 272 264 
536 523 526 536 523 498 521 508 513 506 511 490 501 485 483 483 485 468 473 465 473 465 463 475 475 470 468 475 468 475 455 450 458 458 452 455 452 445 445 445 447 455 435 445 442 452 440 447 440 450 435 425 417 425 407 407 427 427 420 417 427 409 407 404 399 394 397 387 399 394 379 389 379 379 392 389 387 392 384 387 356 354 343 354 361 361 366 346 341 341 328 323 277 228 223 215 233 215 238 213 210 192 189 181 161 205 194 225 254 269 287 282 279 233 220 223 231 246 251 272 259 269 269 261 251 266 248 225 228 233 223 215 223 223 187 213 228 220 215 218 210 259 264 238 189 215 233 251 254 248 246 256 274 261 261 261 279 279 289 284 
543 526 511 526 513 518 521 516 508 503 496 496 496 490 496 485 488 490 485 480 463 493 485 470 470 460 478 480 455 465 473 470 480 463 455 488 460 455 445 440 455 447 447 427 435 440 435 458 450 447 442 425 417 427 425 425 420 422 420 435 432 425 404 409 417 409 394 412 394 389 409 402 384 392 377 392 382 377 379 371 371 346 369 356 346 346 338 336 330 330 297 238 174 161 174 189 225 213 225 233 251 218 189 189 174 215 220 248 274 289 295 302 284 272 220 231 202 241 256 282 266 269 259 266 284 282 272 236 238 254 238 225 225 231 231 215 215 220 215 218 210 241 228 200 197 197 228 241 251 251 259 256 279 274 277 264 272 289 282 272 
533 526 516 511 513 498 506 523 498 498 483 483 513 490 475 450 496 488 480 493 478 480 473 490 468 452 458 470 460 465 473 470 473 452 458 468 458 473 437 432 447 452 447 437 440 432 430 442 432 452 430 425 420 422 435 430 409 417 422 417 420 409 415 404 404 402 382 379 387 389 392 415 382 374 374 369 389 387 399 374 356 361 346 359 348 320 282 287 318 302 241 156 158 192 174 200 202 189 218 246 241 197 184 181 176 213 243 272 269 284 279 287 261 279 223 192 169 218 238 243 246 272 256 251 264 264 241 238 228 238 251 225 236 233 218 207 213 210 220 231 205 200 187 169 192 192 205 223 215 246 277 259 279 274 264 274 272 277 277 264 
543 538 521 528 518 521 523 501 508 490 496 490 506 490 485 475 490 488 493 480 465 478 458 470 460 458 475 473 470 460 468 463 470 452 465 463 463 463 445 447 463 458 447 455 440 427 420 415 427 430 402 404 417 417 435 430 435 422 409 415 425 422 430 417 407 402 397 392 409 387 394 389 392 374 364 364 384 377 369 364 343 351 333 318 310 256 259 261 274 246 194 179 158 169 176 197 202 220 241 218 213 176 197 197 207 205 236 264 279 272 277 264 261 261 233 187 174 189 218 243 256 254 248 233 228 246 251 241 231 233 254 236 236 223 218 225 200 213 205 228 213 200 187 181 176 197 205 220 251 248 272 248 279 272 282 269 289 274 300 272 
556 533 533 523 523 526 528 521 513 501 501 508 493 498 473 475 478 483 490 485 480 468 478 478 458 473 470 488 473 475 470 463 475 468 483 465 463 452 468 450 463 468 442 455 455 422 430 412 404 407 417 420 417 430 440 447 425 425 415 415 430 432 412 407 402 417 394 392 389 374 374 384 389 369 361 361 369 369 377 348 348 333 305 279 266 274 282 256 241 231 187 163 176 171 194 210 261 228 210 207 179 187 189 194 205 223 243 292 287 282 277 284 254 251 225 218 179 176 210 231 246 259 241 215 236 241 238 231 233 251 238 231 225 223 220 215 207 194 231 231 207 187 189 187 200 197 207 233 233 233 264 254 292 264 284 289 284 305 282 302 
546 528 538 523 521 521 531 531 518 503 503 501 503 490 496 480 501 496 480 483 470 475 483 463 455 463 468 470 478 463 475 465 475 468 465 445 455 458 458 442 455 468 442 450 450 440 432 432 417 404 397 420 425 427 440 425 440 432 417 402 420 404 397 415 394 399 412 392 389 387 394 382 374 361 366 356 371 359 338 348 328 307 287 259 259 261 279 274 269 233 213 174 179 207 238 269 259 202 200 179 176 184 181 194 205 241 272 313 300 295 277 289 251 238 228 215 205 179 192 215 207 218 238 218 241 236 243 228 225 243 246 231 238 233 220 220 197 205 225 225 223 215 176 171 187 189 210 223 231 231 248 261 272 287 274 279 289 277 305 305 
553 533 551 546 556 543 538 518 508 511 493 516 508 511 496 493 490 493 485 496 508 480 490 485 478 463 463 475 473 485 473 470 478 458 463 447 445 458 445 445 455 445 452 458 432 460 460 412 387 361 394 407 420 420 437 427 415 425 422 417 415 412 417 409 412 392 402 394 397 389 382 377 379 366 354 361 366 351 343 328 310 305 274 248 266 266 272 269 264 261 248 215 228 261 246 272 266 223 218 181 197 192 189 194 200 251 264 307 297 287 274 274 254 243 223 225 205 210 202 218 215 231 215 213 238 248 251 246 225 233 218 223 225 231 210 215 213 192 200 223 215 228 207 176 179 187 220 220 225 225 241 261 292 282 264 282 300 297 289 287 
543 556 528 548 541 523 528 531 553 528 488 508 503 503 498 501 498 480 480 490 488 508 483 478 468 483 473 485 458 478 458 470 460 463 452 460 452 455 450 455 445 460 430 455 432 442 458 427 382 389 407 422 430 404 430 437 417 407 422 417 430 425 420 409 399 394 384 392 397 387 394 379 371 359 354 371 356 333 343 338 318 274 251 246 254 259 269 287 269 256 259 254 259 261 272 277 259 228 225 213 218 197 207 213 213 236 269 300 295 289 279 287 238 231 213 223 189 194 192 215 238 218 223 218 225 238 266 243 225 228 225 197 218 231 218 215 202 207 187 231 254 225 210 181 171 184 200 213 218 228 238 254 282 284 284 292 297 284 297 282 
551 568 543 556 533 541 528 531 541 521 513 511 508 538 506 501 496 496 493 503 496 501 490 488 503 475 470 498 470 473 473 460 473 465 460 442 450 452 460 447 445 455 432 415 409 435 417 369 382 359 394 422 440 425 425 440 422 420 422 417 422 407 407 407 407 387 392 389 392 392 402 412 389 366 359 374 369 359 328 315 328 266 241 241 248 256 269 251 266 287 272 259 259 261 266 254 251 241 246 259 243 241 238 228 248 233 261 272 302 297 256 264 228 225 207 200 197 181 184 202 218 228 233 223 207 236 251 246 231 225 218 197 223 207 210 200 207 200 223 233 259 241 213 200 194 192 192 210 213 236 246 284 284 287 305 292 300 292 295 266 
576 541 556 538 546 543 538 536 538 523 526 523 516 526 538 521 496 508 511 511 493 498 511 485 478 480 490 496 463 470 470 480 473 465 470 463 455 447 440 447 445 442 435 447 425 409 382 359 379 382 351 409 394 382 412 440 422 422 412 417 412 402 407 404 399 402 392 389 387 382 392 394 382 346 356 359 369 338 359 313 269 238 243 241 246 261 274 261 266 251 282 279 246 248 256 266 272 277 277 282 266 254 243 233 231 228 254 236 261 238 238 223 187 192 184 176 194 169 202 210 202 233 215 220 205 215 223 215 223 243 218 200 215 207 202 207 220 200 231 248 269 259 225 210 192 181 181 213 225 233 259 277 279 274 295 302 284 307 300 287 
566 543 556 536 543 538 533 536 538 521 531 511 518 526 503 506 506 488 508 503 490 485 498 488 496 485 490 483 475 463 473 480 465 475 465 470 460 470 458 447 442 447 442 452 427 420 417 364 305 307 351 392 389 382 399 415 412 407 430 422 425 420 404 412 420 415 409 394 379 364 384 354 289 266 297 289 287 300 313 272 233 256 243 231 231 261 277 254 266 272 274 261 261 279 289 279 266 269 292 279 274 266 264 251 256 243 225 194 228 197 207 207 205 200 189 200 189 174 194 202 197 223 213 213 197 213 223 233 228 241 236 218 205 202 213 223 202 218 241 261 256 266 233 207 210 181 174 205 207 231 261 266 284 284 279 307 297 297 284 300 
563 553 553 546 541 543 533 533 538 531 528 521 521 548 526 508 501 506 503 498 498 498 503 496 478 496 473 490 478 460 468 473 468 480 470 465 465 452 455 442 437 442 447 432 420 415 422 402 325 313 387 407 412 382 382 415 437 442 427 415 420 417 415 422 415 394 404 392 384 364 356 251 205 189 200 194 207 241 233 231 248 256 259 238 238 272 287 261 248 261 287 277 295 284 287 279 272 282 269 266 266 248 274 254 243 256 210 205 181 184 223 207 202 194 202 187 200 197 179 213 205 218 213 218 192 213 231 215 207 238 220 205 215 218 210 210 207 223 231 277 241 256 238 202 200 181 184 189 215 238 277 277 297 287 297 284 313 282 295 284 
580 563 576 573 558 541 551 536 551 536 543 543 551 563 513 508 513 493 501 506 501 516 498 498 480 483 508 503 468 483 475 501 475 475 473 463 458 445 445 450 452 445 442 447 422 422 440 374 338 315 366 377 427 377 377 382 404 425 409 394 412 407 389 402 377 356 348 389 343 333 261 184 176 184 184 192 202 205 218 228 228 266 277 272 264 277 277 277 272 287 289 302 297 302 279 272 266 241 266 261 264 272 259 251 259 251 205 181 181 171 215 205 215 210 192 197 205 194 202 205 210 210 231 207 194 202 218 231 233 218 223 200 205 220 228 233 228 236 243 256 241 248 233 225 200 194 179 194 202 241 264 284 307 300 297 289 300 313 295 277 
593 576 571 566 563 558 551 553 558 536 523 536 533 546 516 533 523 528 508 516 506 511 508 498 483 480 485 483 473 473 480 485 468 485 470 468 447 452 445 447 450 450 455 442 437 442 425 389 333 328 325 371 407 387 351 348 369 399 371 369 382 356 328 351 307 243 274 274 279 225 215 197 192 181 197 200 218 225 215 215 228 256 292 287 300 297 292 295 297 287 307 302 300 295 287 282 287 256 277 251 243 243 251 259 259 269 246 215 192 184 192 200 210 220 210 213 207 210 231 215 213 228 233 213 202 197 236 228 220 236 225 213 228 233 223 223 220 228 243 254 261 251 243 225 205 210 205 202 202 238 241 266 292 292 305 300 287 284 295 284 
590 578 563 563 538 533 556 558 551 541 531 531 543 541 521 513 533 521 498 518 513 518 506 493 488 488 490 511 475 463 458 475 478 460 463 463 455 455 435 440 445 442 432 440 435 417 409 377 323 292 323 338 359 336 300 364 341 361 333 287 254 223 213 218 210 197 210 192 189 192 202 202 184 171 192 200 223 215 223 228 202 213 269 289 295 300 289 282 289 287 310 295 297 287 295 274 274 261 282 264 264 246 243 238 251 256 238 238 189 187 210 189 200 207 215 220 213 207 218 207 210 207 220 223 220 205 213 220 220 225 231 207 215 210 207 215 215 243 236 251 261 241 233 218 210 207 194 197 205 207 225 218 264 279 287 282 287 289 279 292 
585 553 595 566 538 558 568 553 561 566 538 543 538 538 536 518 521 531 521 526 513 511 511 498 490 501 498 503 483 473 475 468 465 458 465 473 465 465 458 435 432 435 430 432 425 435 412 354 292 297 348 336 310 307 272 333 379 346 266 215 207 207 189 192 184 197 194 189 171 171 192 184 174 179 179 210 220 228 231 233 205 218 254 284 295 279 297 295 300 292 302 289 300 289 289 279 282 277 277 274 266 248 238 236 256 261 228 236 202 205 202 205 187 205 202 220 213 194 228 207 207 225 213 228 220 205 205 213 215 225 223 215 220 223 213 231 228 238 254 246 241 246 254 213 210 197 181 189 200 218 231 236 256 282 287 292 297 302 300 284 
576 573 561 571 551 558 551 546 553 536 553 541 548 548 536 518 531 523 516 526 513 503 493 493 475 503 493 496 470 496 468 468 490 470 478 458 460 458 468 442 420 415 409 420 432 402 404 366 313 295 369 392 351 320 305 328 328 305 243 213 197 181 166 197 187 192 194 192 184 189 197 207 197 205 202 223 233 225 254 231 225 218 272 289 313 313 287 295 297 282 295 287 282 264 305 269 251 256 277 292 297 272 243 231 254 256 266 236 207 205 197 192 194 181 181 215 215 218 218 233 220 223 236 236 218 210 210 213 220 233 228 220 231 220 225 225 231 236 259 246 248 243 246 238 223 220 210 207 213 210 231 231 272 272 289 295 295 300 295 300 
588 576 580 558 573 548 558 538 558 548 551 531 556 551 546 511 531 521 516 513 518 526 508 478 511 498 496 506 473 483 480 475 483 452 473 475 475 485 465 445 437 417 412 415 427 420 417 366 323 310 397 394 402 351 302 289 266 241 233 194 197 184 171 194 189 189 197 194 218 223 233 233 236 213 233 243 254 248 243 254 233 272 274 289 287 277 284 300 295 289 279 279 277 269 277 277 274 266 287 277 269 282 256 241 264 251 218 228 223 205 184 200 200 187 184 192 202 192 233 220 231 254 246 246 228 205 197 215 223 243 241 210 218 220 223 218 246 225 256 238 259 261 238 215 220 197 225 213 205 215 218 223 259 274 272 266 287 282 287 272 
588 583 568 556 558 558 548 546 551 546 526 551 546 531 538 518 531 511 511 526 498 503 506 503 498 488 483 506 470 473 468 475 473 425 452 435 468 437 440 435 427 417 394 407 420 409 409 366 330 341 374 422 387 374 320 272 213 205 189 184 181 174 166 192 189 197 192 202 202 210 243 218 228 218 246 248 264 236 256 266 287 282 292 305 289 295 300 307 295 295 277 279 272 279 279 279 277 269 292 295 297 277 277 246 243 259 223 205 192 181 171 179 194 181 176 169 174 181 200 241 246 264 261 241 231 215 176 189 225 210 223 215 220 238 238 246 233 236 246 261 243 264 233 228 210 179 197 187 189 215 192 243 261 261 284 287 297 295 295 284 
595 588 561 563 556 553 568 548 548 543 553 543 541 521 533 521 518 513 511 518 501 516 508 501 508 506 490 506 478 485 478 452 458 415 384 354 338 333 330 351 404 420 384 382 407 402 420 359 320 364 359 394 415 361 297 251 210 169 184 179 176 169 194 189 181 200 210 205 220 238 241 238 215 241 251 254 264 272 279 266 266 274 274 289 269 277 279 256 261 272 284 272 287 284 274 277 287 269 277 282 277 261 287 284 236 220 189 184 187 200 171 184 179 202 174 181 171 181 189 210 218 254 251 264 261 246 210 181 228 228 248 213 243 251 256 241 248 238 254 264 266 236 228 223 200 194 200 207 187 210 205 231 259 266 279 274 284 292 277 295 
595 576 576 563 583 556 573 553 553 543 551 538 543 531 541 511 518 531 521 513 513 516 506 506 501 508 498 518 488 478 465 483 463 394 348 282 246 264 254 272 343 387 379 351 384 422 399 382 343 333 354 336 323 287 228 197 192 184 184 174 194 176 181 202 192 228 218 218 248 246 248 272 246 243 256 264 297 282 292 272 279 295 264 279 284 289 289 264 264 248 269 272 279 284 287 282 261 269 289 287 289 302 302 282 256 218 202 192 194 181 187 197 181 189 171 181 184 181 192 200 215 246 259 266 266 243 207 194 225 246 289 231 243 241 248 256 251 264 248 274 241 256 243 233 233 215 179 210 194 207 210 231 292 274 272 269 289 279 282 289 
595 585 573 585 576 568 558 553 563 543 553 546 551 546 541 533 543 521 518 538 511 536 518 501 516 498 511 508 493 468 468 473 430 338 287 241 228 228 233 236 297 346 356 338 330 404 409 356 289 272 259 225 238 241 205 192 181 181 169 176 200 218 189 213 233 223 233 248 269 256 251 246 243 238 256 251 297 295 297 287 274 279 277 279 266 284 266 269 243 236 241 259 292 277 287 292 272 284 282 279 279 287 272 241 213 233 210 197 179 187 197 215 176 184 181 202 194 187 202 197 220 215 256 261 287 259 264 174 205 236 264 246 256 246 269 266 266 256 272 272 269 254 246 241 223 231 218 225 192 200 231 243 282 284 295 289 302 307 282 292 
598 608 610 571 561 588 568 563 546 553 546 548 563 553 543 543 521 541 518 531 528 511 508 506 501 503 508 518 488 455 430 420 348 259 256 233 213 223 241 241 251 315 323 341 346 394 382 320 236 233 223 220 194 215 213 205 192 200 197 197 213 187 233 231 238 241 251 254 266 246 243 254 254 233 241 246 292 318 289 297 248 251 272 261 246 287 300 254 228 233 233 261 274 279 279 292 274 269 259 259 248 248 256 246 238 220 223 220 215 215 233 238 220 236 223 228 213 200 202 223 205 243 223 243 277 264 225 210 181 207 236 248 274 243 254 287 264 259 243 256 274 248 251 241 231 236 236 225 215 223 243 248 277 272 287 289 295 307 300 305 
605 585 585 568 561 571 568 551 551 546 548 536 548 551 553 551 541 526 543 528 533 528 518 498 490 503 493 475 490 452 407 338 313 233 233 223 225 231 231 254 261 292 305 341 292 302 302 231 225 218 223 210 205 215 231 225 205 202 213 218 225 233 228 200 228 228 243 246 259 266 261 241 223 228 248 243 269 289 272 231 213 223 254 274 261 284 289 259 218 238 246 256 261 284 297 272 266 223 243 238 236 231 238 238 238 246 241 236 251 241 241 254 261 264 259 259 236 220 228 243 210 189 236 220 246 223 189 187 181 189 233 233 233 231 238 261 256 259 248 251 241 251 246 251 228 236 228 220 233 261 241 248 272 274 282 300 284 300 300 305 
590 573 588 578 563 556 558 538 551 553 561 548 523 543 551 538 518 536 523 526 526 503 513 496 501 493 478 478 465 425 382 300 251 223 228 238 233 241 215 248 238 251 282 302 269 261 248 197 213 218 223 225 213 220 223 205 197 202 207 220 228 215 200 218 205 194 213 225 261 254 264 207 210 213 228 236 261 248 256 202 205 223 223 236 246 223 238 215 207 215 259 243 243 248 248 241 225 218 225 223 231 228 225 220 220 243 228 236 246 261 228 251 248 256 251 248 251 256 254 261 274 246 246 236 241 241 220 174 158 179 197 205 218 213 228 261 266 279 261 251 243 251 236 246 266 236 213 231 223 243 246 236 256 264 282 277 277 287 310 295 
613 576 588 571 573 548 551 558 561 548 533 546 546 546 526 526 536 521 516 533 526 518 526 493 488 485 475 475 452 412 354 261 246 210 223 241 251 256 236 251 254 238 256 261 241 251 225 218 207 207 207 210 223 205 218 200 215 210 218 231 225 215 200 213 200 202 210 197 225 236 215 223 228 223 223 231 243 254 236 218 197 218 251 231 215 223 223 215 215 220 248 256 248 233 256 225 228 220 218 223 210 225 231 231 243 243 225 231 236 231 231 220 231 248 251 254 248 231 261 256 246 284 266 256 266 256 236 207 181 197 200 218 207 210 213 236 269 259 238 254 259 238 233 243 223 228 228 200 236 210 231 233 259 269 282 272 302 289 297 300 
617 595 590 568 578 563 585 546 571 573 538 546 546 548 533 541 538 528 521 536 538 506 503 498 496 485 470 473 440 409 320 261 236 238 236 256 238 248 246 248 256 261 254 256 248 207 220 202 192 200 207 207 200 218 228 215 202 207 213 233 251 220 220 231 218 205 205 205 215 207 218 223 220 228 233 225 248 228 205 215 197 225 238 248 238 218 236 233 225 233 251 261 243 233 241 238 238 236 215 223 207 218 228 213 231 231 213 220 231 243 228 228 243 248 264 236 243 243 259 259 246 256 274 259 274 266 246 236 192 192 189 200 215 228 225 246 246 256 225 236 228 231 228 228 246 236 241 225 213 236 248 261 279 279 282 279 287 274 284 289 
608 613 608 588 566 563 578 571 566 543 538 541 536 531 533 533 548 541 511 523 533 526 490 501 478 480 470 460 412 425 330 272 231 231 251 236 246 269 259 269 248 274 266 264 256 231 218 200 192 192 197 207 179 202 205 200 194 231 215 228 238 228 223 215 215 205 215 207 215 205 213 218 241 223 236 251 264 254 220 223 205 228 243 256 261 238 233 225 243 251 241 256 228 246 231 241 233 241 210 210 215 213 220 205 215 231 215 223 223 228 233 233 236 248 241 238 264 248 246 231 243 246 261 259 287 279 266 269 220 194 181 197 215 225 225 233 248 233 218 231 233 251 218 225 243 243 241 215 218 228 238 243 261 284 282 266 277 289 310 284 
613 613 595 590 590 578 578 573 566 538 546 546 523 546 523 531 541 533 518 533 513 521 496 498 490 463 465 475 440 387 318 264 238 241 254 251 248 264 264 256 289 302 266 277 284 233 231 213 194 200 205 200 218 202 200 197 220 210 236 259 246 243 241 228 215 223 246 269 261 254 238 228 207 225 233 251 284 251 248 215 220 202 213 241 254 233 248 243 243 274 251 251 233 246 246 231 233 233 225 207 215 210 210 202 200 213 205 220 210 231 223 251 243 231 243 241 248 236 251 231 259 243 269 272 279 282 282 254 228 210 215 207 246 259 246 233 220 225 215 207 223 233 233 223 231 269 241 236 218 233 243 251 282 282 269 292 302 279 272 279 
620 615 595 583 571 563 558 568 541 548 531 538 543 541 533 536 523 533 501 528 513 511 511 468 460 470 478 460 422 377 315 259 241 228 243 248 231 248 243 277 269 295 269 264 287 246 218 200 189 210 187 210 207 192 205 218 192 213 231 236 233 231 225 241 231 266 305 302 305 272 256 228 210 200 218 223 233 256 264 243 218 194 200 207 231 205 218 213 231 256 261 254 241 241 228 233 223 231 225 218 215 210 215 197 213 207 207 207 213 213 223 223 241 243 254 225 243 228 243 238 238 233 256 274 279 287 279 266 243 215 205 213 251 261 261 231 223 200 220 213 220 220 225 231 231 248 238 223 213 225 228 223 259 287 272 284 272 274 251 261 
600 608 588 585 585 568 580 553 551 538 571 541 561 528 538 523 533 536 503 511 513 511 488 470 470 488 463 430 399 361 284 300 264 251 248 228 251 254 251 269 277 292 279 284 272 254 223 189 187 202 200 202 215 215 218 207 174 218 236 251 225 225 251 266 287 318 320 289 289 277 238 210 181 192 207 207 243 241 251 231 215 200 197 187 197 220 213 225 233 241 264 238 238 228 233 236 210 223 233 210 202 202 207 189 187 210 207 220 207 215 205 207 225 236 220 225 238 220 236 223 231 246 256 269 274 289 274 279 243 236 220 210 243 256 241 231 213 200 218 210 213 215 215 192 210 225 225 202 194 210 215 233 259 264 277 269 272 254 272 261 
608 617 583 571 566 576 576 541 551 573 563 536 531 523 523 513 528 531 523 523 508 511 511 478 470 475 478 465 397 387 318 305 289 279 282 261 279 266 236 272 277 284 287 266 269 261 202 228 181 194 200 205 215 233 220 207 207 200 238 251 243 256 246 251 277 284 307 315 313 289 261 213 187 194 197 205 197 210 259 228 225 215 202 197 187 233 218 238 233 238 236 251 225 225 243 218 213 215 205 213 220 207 236 220 200 213 210 205 228 225 210 194 225 231 215 228 251 228 233 218 218 223 225 256 277 274 266 248 256 259 228 189 246 238 272 272 241 213 197 207 213 215 220 218 197 207 218 202 194 205 256 233 259 287 282 284 264 264 272 272 
605 608 605 558 578 573 558 546 553 553 558 531 531 518 531 511 508 511 516 516 513 478 498 473 468 470 458 455 397 397 351 333 323 302 310 282 269 251 256 274 269 279 254 261 266 261 236 236 225 207 205 236 228 246 238 254 207 241 277 256 254 251 254 254 264 282 310 323 320 284 266 223 194 179 202 202 194 200 233 236 207 187 210 194 202 233 218 236 269 241 256 238 238 251 259 228 207 200 207 210 225 218 236 207 215 228 225 218 223 238 233 225 210 241 215 248 254 225 243 231 223 220 231 223 269 289 266 259 236 236 231 187 218 254 272 261 254 202 202 202 215 213 200 205 210 220 218 202 184 192 243 243 254 266 259 277 284 277 274 274 


